assets/icons/mail.svg

<svg width="17" height="14" viewBox="0 0 17 14" fill="none" xmlns="http://www.w3.org/2000/svg">
<path d="M15.9375 0H0.9375C0.68886 0 0.450403 0.0987719 0.274587 0.274587C0.0987721 0.450403 0 0.68886 0 0.9375V11.5625C0 11.9769 0.16462 12.3743 0.457646 12.6674C0.750671 12.9604 1.1481 13.125 1.5625 13.125H15.3125C15.7269 13.125 16.1243 12.9604 16.4174 12.6674C16.7104 12.3743 16.875 11.9769 16.875 11.5625V0.9375C16.875 0.68886 16.7762 0.450403 16.6004 0.274587C16.4246 0.0987719 16.1861 0 15.9375 0ZM8.4375 6.54063L3.34766 1.875H13.5273L8.4375 6.54063ZM5.68672 6.5625L1.875 10.0562V3.06875L5.68672 6.5625ZM7.07422 7.83437L7.80391 8.50391C7.97682 8.66246 8.2029 8.75042 8.4375 8.75042C8.6721 8.75042 8.89818 8.66246 9.07109 8.50391L9.80078 7.83437L13.5273 11.25H3.34766L7.07422 7.83437ZM11.1883 6.5625L15 3.06875V10.0562L11.1883 6.5625Z" fill="black" fill-opacity="0.4"/>
</svg>

<svg xmlns="http://www.w3.org/2000/svg" width="17" height="14" fill="none" viewBox="0 0 17 14"><path fill="#000" fill-opacity=".4" d="M15.938 0h-15A.94.94 0 0 0 0 .938v10.625a1.563 1.563 0 0 0 1.563 1.562h13.75a1.563 1.563 0 0 0 1.562-1.562V.938A.94.94 0 0 0 15.938 0m-7.5 6.54-5.09-4.665h10.18zm-2.751.022-3.812 3.494V3.07zm1.387 1.272.73.67a.937.937 0 0 0 1.267 0l.73-.67 3.726 3.416H3.347zm4.114-1.271L15 3.069v6.987z"/></svg>
